images/3235178.svg

<?xml version="1.0" encoding="UTF-8"?>
<svg xmlns="http://www.w3.org/2000/svg" xmlns:xlink="http://www.w3.org/1999/xlink" width="300pt" height="300pt" viewBox="0 0 300 300" version="1.1">
<defs>
<g>
<symbol overflow="visible" id="glyph0-0">
<path style="stroke:none;" d="M 0.546875 1.9375 L 0.546875 -7.75 L 6.046875 -7.75 L 6.046875 1.9375 Z M 1.171875 1.328125 L 5.4375 1.328125 L 5.4375 -7.140625 L 1.171875 -7.140625 Z M 1.171875 1.328125 "/>
</symbol>
<symbol overflow="visible" id="glyph0-1">
<path style="stroke:none;" d="M 1.078125 -8.015625 L 2.546875 -8.015625 L 6.09375 -1.3125 L 6.09375 -8.015625 L 7.15625 -8.015625 L 7.15625 0 L 5.6875 0 L 2.125 -6.703125 L 2.125 0 L 1.078125 0 Z M 1.078125 -8.015625 "/>
</symbol>
<symbol overflow="visible" id="glyph0-2">
<path style="stroke:none;" d="M 4.328125 -7.28125 C 3.546875 -7.28125 2.921875 -6.984375 2.453125 -6.390625 C 1.992188 -5.804688 1.765625 -5.007812 1.765625 -4 C 1.765625 -2.988281 1.992188 -2.1875 2.453125 -1.59375 C 2.921875 -1.007812 3.546875 -0.71875 4.328125 -0.71875 C 5.117188 -0.71875 5.742188 -1.007812 6.203125 -1.59375 C 6.660156 -2.1875 6.890625 -2.988281 6.890625 -4 C 6.890625 -5.007812 6.660156 -5.804688 6.203125 -6.390625 C 5.742188 -6.984375 5.117188 -7.28125 4.328125 -7.28125 Z M 4.328125 -8.171875 C 5.453125 -8.171875 6.351562 -7.789062 7.03125 -7.03125 C 7.707031 -6.28125 8.046875 -5.269531 8.046875 -4 C 8.046875 -2.738281 7.707031 -1.726562 7.03125 -0.96875 C 6.351562 -0.21875 5.453125 0.15625 4.328125 0.15625 C 3.203125 0.15625 2.300781 -0.21875 1.625 -0.96875 C 0.957031 -1.71875 0.625 -2.726562 0.625 -4 C 0.625 -5.269531 0.957031 -6.28125 1.625 -7.03125 C 2.300781 -7.789062 3.203125 -8.171875 4.328125 -8.171875 Z M 4.328125 -8.171875 "/>
</symbol>
</g>
</defs>
<g id="surface39125">
<rect x="0" y="0" width="300" height="300" style="fill:rgb(100%,100%,100%);fill-opacity:1;stroke:none;"/>
<path style="fill:none;stroke-width:1.2;stroke-linecap:butt;stroke-linejoin:miter;stroke:rgb(0%,0%,0%);stroke-opacity:1;stroke-miterlimit:10;" d="M 35.25 201.511719 L 61.84375 197.519531 "/>
<path style="fill:none;stroke-width:1.2;stroke-linecap:butt;stroke-linejoin:miter;stroke:rgb(0%,0%,0%);stroke-opacity:1;stroke-miterlimit:10;" d="M 61.84375 197.519531 L 70.21875 208.039062 "/>
<path style="fill:none;stroke-width:1.2;stroke-linecap:butt;stroke-linejoin:miter;stroke:rgb(0%,0%,100%);stroke-opacity:1;stroke-miterlimit:10;" d="M 70.21875 208.039062 L 78.597656 218.554688 "/>
<path style="fill:none;stroke-width:1.2;stroke-linecap:butt;stroke-linejoin:miter;stroke:rgb(0%,0%,0%);stroke-opacity:1;stroke-miterlimit:10;" d="M 68.46875 195.679688 L 75.167969 204.09375 "/>
<path style="fill:none;stroke-width:1.2;stroke-linecap:butt;stroke-linejoin:miter;stroke:rgb(0%,0%,100%);stroke-opacity:1;stroke-miterlimit:10;" d="M 75.167969 204.09375 L 81.871094 212.507812 "/>
<path style="fill:none;stroke-width:1.2;stroke-linecap:butt;stroke-linejoin:miter;stroke:rgb(0%,0%,0%);stroke-opacity:1;stroke-miterlimit:10;" d="M 71.683594 172.492188 L 61.84375 197.519531 "/>
<path style="fill:none;stroke-width:1.2;stroke-linecap:butt;stroke-linejoin:miter;stroke:rgb(0%,0%,100%);stroke-opacity:1;stroke-miterlimit:10;" d="M 78.597656 218.554688 L 91.894531 216.558594 "/>
<path style="fill:none;stroke-width:1.2;stroke-linecap:butt;stroke-linejoin:miter;stroke:rgb(0%,0%,0%);stroke-opacity:1;stroke-miterlimit:10;" d="M 91.894531 216.558594 L 105.191406 214.5625 "/>
<path style=" stroke:none;fill-rule:nonzero;fill:rgb(100%,100%,100%);fill-opacity:1;" d="M 74.597656 212.054688 L 82.597656 212.054688 L 82.597656 225.054688 L 74.597656 225.054688 Z M 74.597656 212.054688 "/>
<g style="fill:rgb(0%,0%,100%);fill-opacity:1;">
  <use xlink:href="#glyph0-1" x="74.597656" y="221.956055"/>
</g>
<path style="fill:none;stroke-width:1.2;stroke-linecap:butt;stroke-linejoin:miter;stroke:rgb(0%,0%,0%);stroke-opacity:1;stroke-miterlimit:10;" d="M 105.191406 214.5625 L 121.945312 235.597656 "/>
<path style="fill:none;stroke-width:1.2;stroke-linecap:butt;stroke-linejoin:miter;stroke:rgb(0%,0%,0%);stroke-opacity:1;stroke-miterlimit:10;" d="M 111.816406 212.722656 L 125.21875 229.550781 "/>
<path style="fill:none;stroke-width:1.2;stroke-linecap:butt;stroke-linejoin:miter;stroke:rgb(0%,0%,0%);stroke-opacity:1;stroke-miterlimit:10;" d="M 115.03125 189.535156 L 105.191406 214.5625 "/>
<path style="fill:none;stroke-width:1.2;stroke-linecap:butt;stroke-linejoin:miter;stroke:rgb(0%,0%,0%);stroke-opacity:1;stroke-miterlimit:10;" d="M 121.945312 235.597656 L 135.242188 233.601562 "/>
<path style="fill:none;stroke-width:1.2;stroke-linecap:butt;stroke-linejoin:miter;stroke:rgb(0%,0%,100%);stroke-opacity:1;stroke-miterlimit:10;" d="M 135.242188 233.601562 L 148.539062 231.605469 "/>
<path style="fill:none;stroke-width:1.2;stroke-linecap:butt;stroke-linejoin:miter;stroke:rgb(0%,0%,100%);stroke-opacity:1;stroke-miterlimit:10;" d="M 148.539062 231.605469 L 153.457031 219.089844 "/>
<path style="fill:none;stroke-width:1.2;stroke-linecap:butt;stroke-linejoin:miter;stroke:rgb(0%,0%,0%);stroke-opacity:1;stroke-miterlimit:10;" d="M 153.457031 219.089844 L 158.378906 206.578125 "/>
<path style="fill:none;stroke-width:1.2;stroke-linecap:butt;stroke-linejoin:miter;stroke:rgb(0%,0%,100%);stroke-opacity:1;stroke-miterlimit:10;" d="M 143.632812 226.785156 L 147.570312 216.777344 "/>
<path style="fill:none;stroke-width:1.2;stroke-linecap:butt;stroke-linejoin:miter;stroke:rgb(0%,0%,0%);stroke-opacity:1;stroke-miterlimit:10;" d="M 147.570312 216.777344 L 151.503906 206.765625 "/>
<path style=" stroke:none;fill-rule:nonzero;fill:rgb(100%,100%,100%);fill-opacity:1;" d="M 144.539062 225.105469 L 152.539062 225.105469 L 152.539062 238.105469 L 144.539062 238.105469 Z M 144.539062 225.105469 "/>
<g style="fill:rgb(0%,0%,100%);fill-opacity:1;">
  <use xlink:href="#glyph0-1" x="144.539062" y="235.006836"/>
</g>
<path style="fill:none;stroke-width:1.2;stroke-linecap:butt;stroke-linejoin:miter;stroke:rgb(0%,0%,0%);stroke-opacity:1;stroke-miterlimit:10;" d="M 158.378906 206.578125 L 150 196.0625 "/>
<path style="fill:none;stroke-width:1.2;stroke-linecap:butt;stroke-linejoin:miter;stroke:rgb(0%,0%,100%);stroke-opacity:1;stroke-miterlimit:10;" d="M 150 196.0625 L 141.621094 185.542969 "/>
<path style="fill:none;stroke-width:1.2;stroke-linecap:butt;stroke-linejoin:miter;stroke:rgb(0%,0%,0%);stroke-opacity:1;stroke-miterlimit:10;" d="M 158.378906 206.578125 L 171.671875 204.582031 "/>
<path style="fill:none;stroke-width:1.2;stroke-linecap:butt;stroke-linejoin:miter;stroke:rgb(0%,0%,100%);stroke-opacity:1;stroke-miterlimit:10;" d="M 171.671875 204.582031 L 184.96875 202.585938 "/>
<path style="fill:none;stroke-width:1.2;stroke-linecap:butt;stroke-linejoin:miter;stroke:rgb(0%,0%,100%);stroke-opacity:1;stroke-miterlimit:10;" d="M 141.621094 185.542969 L 128.328125 187.539062 "/>
<path style="fill:none;stroke-width:1.2;stroke-linecap:butt;stroke-linejoin:miter;stroke:rgb(0%,0%,0%);stroke-opacity:1;stroke-miterlimit:10;" d="M 128.328125 187.539062 L 115.03125 189.535156 "/>
<path style="fill:none;stroke-width:1.2;stroke-linecap:butt;stroke-linejoin:miter;stroke:rgb(0%,0%,100%);stroke-opacity:1;stroke-miterlimit:10;" d="M 139.902344 192.199219 L 129.265625 193.796875 "/>
<path style="fill:none;stroke-width:1.2;stroke-linecap:butt;stroke-linejoin:miter;stroke:rgb(0%,0%,0%);stroke-opacity:1;stroke-miterlimit:10;" d="M 129.265625 193.796875 L 118.628906 195.394531 "/>
<path style=" stroke:none;fill-rule:nonzero;fill:rgb(100%,100%,100%);fill-opacity:1;" d="M 137.621094 179.042969 L 145.621094 179.042969 L 145.621094 192.042969 L 137.621094 192.042969 Z M 137.621094 179.042969 "/>
<g style="fill:rgb(0%,0%,100%);fill-opacity:1;">
  <use xlink:href="#glyph0-1" x="137.621094" y="188.944336"/>
</g>
<path style="fill:none;stroke-width:1.2;stroke-linecap:butt;stroke-linejoin:miter;stroke:rgb(0%,0%,0%);stroke-opacity:1;stroke-miterlimit:10;" d="M 115.03125 189.535156 L 106.652344 179.019531 "/>
<path style="fill:none;stroke-width:1.2;stroke-linecap:butt;stroke-linejoin:miter;stroke:rgb(0%,0%,100%);stroke-opacity:1;stroke-miterlimit:10;" d="M 106.652344 179.019531 L 98.277344 168.5 "/>
<path style="fill:none;stroke-width:1.2;stroke-linecap:butt;stroke-linejoin:miter;stroke:rgb(0%,0%,100%);stroke-opacity:1;stroke-miterlimit:10;" d="M 98.277344 168.5 L 84.980469 170.496094 "/>
<path style="fill:none;stroke-width:1.2;stroke-linecap:butt;stroke-linejoin:miter;stroke:rgb(0%,0%,0%);stroke-opacity:1;stroke-miterlimit:10;" d="M 84.980469 170.496094 L 71.683594 172.492188 "/>
<path style="fill:none;stroke-width:1.2;stroke-linecap:butt;stroke-linejoin:miter;stroke:rgb(0%,0%,100%);stroke-opacity:1;stroke-miterlimit:10;" d="M 98.277344 168.5 L 103.195312 155.988281 "/>
<path style="fill:none;stroke-width:1.2;stroke-linecap:butt;stroke-linejoin:miter;stroke:rgb(0%,0%,0%);stroke-opacity:1;stroke-miterlimit:10;" d="M 103.195312 155.988281 L 108.113281 143.476562 "/>
<path style=" stroke:none;fill-rule:nonzero;fill:rgb(100%,100%,100%);fill-opacity:1;" d="M 94.277344 162 L 102.277344 162 L 102.277344 175 L 94.277344 175 Z M 94.277344 162 "/>
<g style="fill:rgb(0%,0%,100%);fill-opacity:1;">
  <use xlink:href="#glyph0-1" x="94.277344" y="171.901367"/>
</g>
<path style="fill:none;stroke-width:1.2;stroke-linecap:butt;stroke-linejoin:miter;stroke:rgb(0%,0%,0%);stroke-opacity:1;stroke-miterlimit:10;" d="M 74.15625 170.523438 L 65.78125 160.003906 "/>
<path style="fill:none;stroke-width:1.2;stroke-linecap:butt;stroke-linejoin:miter;stroke:rgb(100%,0%,0%);stroke-opacity:1;stroke-miterlimit:10;" d="M 65.78125 160.003906 L 57.402344 149.488281 "/>
<path style="fill:none;stroke-width:1.2;stroke-linecap:butt;stroke-linejoin:miter;stroke:rgb(0%,0%,0%);stroke-opacity:1;stroke-miterlimit:10;" d="M 69.207031 174.464844 L 60.832031 163.949219 "/>
<path style="fill:none;stroke-width:1.2;stroke-linecap:butt;stroke-linejoin:miter;stroke:rgb(100%,0%,0%);stroke-opacity:1;stroke-miterlimit:10;" d="M 60.832031 163.949219 L 52.453125 153.429688 "/>
<path style=" stroke:none;fill-rule:nonzero;fill:rgb(100%,100%,100%);fill-opacity:1;" d="M 45.929688 144.960938 L 54.929688 144.960938 L 54.929688 157.960938 L 45.929688 157.960938 Z M 45.929688 144.960938 "/>
<g style="fill:rgb(100%,0%,0%);fill-opacity:1;">
  <use xlink:href="#glyph0-2" x="45.929688" y="154.862305"/>
</g>
<path style="fill:none;stroke-width:1.2;stroke-linecap:butt;stroke-linejoin:miter;stroke:rgb(0%,0%,0%);stroke-opacity:1;stroke-miterlimit:10;" d="M 108.113281 143.476562 L 134.707031 139.484375 "/>
<path style="fill:none;stroke-width:1.2;stroke-linecap:butt;stroke-linejoin:miter;stroke:rgb(0%,0%,0%);stroke-opacity:1;stroke-miterlimit:10;" d="M 134.707031 139.484375 L 144.546875 114.457031 "/>
<path style="fill:none;stroke-width:1.2;stroke-linecap:butt;stroke-linejoin:miter;stroke:rgb(0%,0%,0%);stroke-opacity:1;stroke-miterlimit:10;" d="M 144.546875 114.457031 L 171.140625 110.464844 "/>
<path style="fill:none;stroke-width:1.2;stroke-linecap:butt;stroke-linejoin:miter;stroke:rgb(0%,0%,0%);stroke-opacity:1;stroke-miterlimit:10;" d="M 146.269531 107.800781 L 167.542969 104.605469 "/>
<path style="fill:none;stroke-width:1.2;stroke-linecap:butt;stroke-linejoin:miter;stroke:rgb(0%,0%,0%);stroke-opacity:1;stroke-miterlimit:10;" d="M 127.792969 93.421875 L 144.546875 114.457031 "/>
<path style="fill:none;stroke-width:1.2;stroke-linecap:butt;stroke-linejoin:miter;stroke:rgb(0%,0%,0%);stroke-opacity:1;stroke-miterlimit:10;" d="M 171.140625 110.464844 L 180.980469 85.4375 "/>
<path style="fill:none;stroke-width:1.2;stroke-linecap:butt;stroke-linejoin:miter;stroke:rgb(0%,0%,0%);stroke-opacity:1;stroke-miterlimit:10;" d="M 180.980469 85.4375 L 164.226562 64.402344 "/>
<path style="fill:none;stroke-width:1.2;stroke-linecap:butt;stroke-linejoin:miter;stroke:rgb(0%,0%,0%);stroke-opacity:1;stroke-miterlimit:10;" d="M 174.355469 87.277344 L 160.953125 70.449219 "/>
<path style="fill:none;stroke-width:1.2;stroke-linecap:butt;stroke-linejoin:miter;stroke:rgb(0%,0%,0%);stroke-opacity:1;stroke-miterlimit:10;" d="M 164.226562 64.402344 L 137.632812 68.394531 "/>
<path style="fill:none;stroke-width:1.2;stroke-linecap:butt;stroke-linejoin:miter;stroke:rgb(0%,0%,0%);stroke-opacity:1;stroke-miterlimit:10;" d="M 137.632812 68.394531 L 127.792969 93.421875 "/>
<path style="fill:none;stroke-width:1.2;stroke-linecap:butt;stroke-linejoin:miter;stroke:rgb(0%,0%,0%);stroke-opacity:1;stroke-miterlimit:10;" d="M 142.539062 73.214844 L 134.667969 93.234375 "/>
<path style="fill:none;stroke-width:1.2;stroke-linecap:butt;stroke-linejoin:miter;stroke:rgb(0%,0%,100%);stroke-opacity:1;stroke-miterlimit:10;" d="M 184.96875 202.585938 L 193.347656 213.101562 "/>
<path style="fill:none;stroke-width:1.2;stroke-linecap:butt;stroke-linejoin:miter;stroke:rgb(0%,0%,0%);stroke-opacity:1;stroke-miterlimit:10;" d="M 193.347656 213.101562 L 201.722656 223.621094 "/>
<path style="fill:none;stroke-width:1.2;stroke-linecap:butt;stroke-linejoin:miter;stroke:rgb(0%,0%,0%);stroke-opacity:1;stroke-miterlimit:10;" d="M 194.808594 177.558594 L 189.890625 190.074219 "/>
<path style="fill:none;stroke-width:1.2;stroke-linecap:butt;stroke-linejoin:miter;stroke:rgb(0%,0%,100%);stroke-opacity:1;stroke-miterlimit:10;" d="M 189.890625 190.074219 L 184.96875 202.585938 "/>
<path style=" stroke:none;fill-rule:nonzero;fill:rgb(100%,100%,100%);fill-opacity:1;" d="M 180.96875 196.085938 L 188.96875 196.085938 L 188.96875 209.085938 L 180.96875 209.085938 Z M 180.96875 196.085938 "/>
<g style="fill:rgb(0%,0%,100%);fill-opacity:1;">
  <use xlink:href="#glyph0-1" x="180.96875" y="205.987305"/>
</g>
<path style="fill:none;stroke-width:1.2;stroke-linecap:butt;stroke-linejoin:miter;stroke:rgb(0%,0%,0%);stroke-opacity:1;stroke-miterlimit:10;" d="M 201.722656 223.621094 L 228.316406 219.628906 "/>
<path style="fill:none;stroke-width:1.2;stroke-linecap:butt;stroke-linejoin:miter;stroke:rgb(0%,0%,0%);stroke-opacity:1;stroke-miterlimit:10;" d="M 228.316406 219.628906 L 233.238281 207.113281 "/>
<path style="fill:none;stroke-width:1.2;stroke-linecap:butt;stroke-linejoin:miter;stroke:rgb(0%,0%,100%);stroke-opacity:1;stroke-miterlimit:10;" d="M 233.238281 207.113281 L 238.15625 194.601562 "/>
<path style="fill:none;stroke-width:1.2;stroke-linecap:butt;stroke-linejoin:miter;stroke:rgb(0%,0%,100%);stroke-opacity:1;stroke-miterlimit:10;" d="M 238.15625 194.601562 L 229.78125 184.085938 "/>
<path style="fill:none;stroke-width:1.2;stroke-linecap:butt;stroke-linejoin:miter;stroke:rgb(0%,0%,0%);stroke-opacity:1;stroke-miterlimit:10;" d="M 229.78125 184.085938 L 221.402344 173.566406 "/>
<path style="fill:none;stroke-width:1.2;stroke-linecap:butt;stroke-linejoin:miter;stroke:rgb(0%,0%,100%);stroke-opacity:1;stroke-miterlimit:10;" d="M 238.15625 194.601562 L 251.453125 192.605469 "/>
<path style="fill:none;stroke-width:1.2;stroke-linecap:butt;stroke-linejoin:miter;stroke:rgb(0%,0%,0%);stroke-opacity:1;stroke-miterlimit:10;" d="M 251.453125 192.605469 L 264.75 190.609375 "/>
<path style=" stroke:none;fill-rule:nonzero;fill:rgb(100%,100%,100%);fill-opacity:1;" d="M 234.15625 188.101562 L 242.15625 188.101562 L 242.15625 201.101562 L 234.15625 201.101562 Z M 234.15625 188.101562 "/>
<g style="fill:rgb(0%,0%,100%);fill-opacity:1;">
  <use xlink:href="#glyph0-1" x="234.15625" y="198.00293"/>
</g>
<path style="fill:none;stroke-width:1.2;stroke-linecap:butt;stroke-linejoin:miter;stroke:rgb(0%,0%,0%);stroke-opacity:1;stroke-miterlimit:10;" d="M 221.402344 173.566406 L 194.808594 177.558594 "/>
</g>
</svg>

<svg xmlns="http://www.w3.org/2000/svg" xmlns:xlink="http://www.w3.org/1999/xlink" width="300pt" height="300pt" viewBox="0 0 300 300"><defs><symbol overflow="visible"><path d="M.547 1.938V-7.75h5.5v9.688zm.625-.61h4.266v-8.47H1.171zm0 0"/></symbol><symbol overflow="visible" id="a"><path d="M1.078-8.016h1.47l3.546 6.704v-6.704h1.062V0H5.688L2.124-6.703V0H1.078zm0 0"/></symbol><symbol overflow="visible" id="b"><path d="M4.328-7.28c-.78 0-1.406.296-1.875.89-.46.585-.687 1.382-.687 2.39 0 1.012.226 1.813.687 2.406.47.586 1.094.875 1.875.875.79 0 1.414-.288 1.875-.874.457-.593.688-1.394.688-2.406 0-1.008-.23-1.805-.687-2.39-.46-.594-1.086-.89-1.875-.89zm0-.892c1.125 0 2.024.383 2.703 1.14C7.708-6.28 8.048-5.27 8.048-4c0 1.262-.34 2.273-1.016 3.03C6.353-.22 5.454.157 4.33.157S2.3-.22 1.625-.97c-.668-.75-1-1.757-1-3.03 0-1.27.332-2.28 1-3.03.676-.76 1.578-1.142 2.703-1.142zm0 0"/></symbol></defs><g><path fill="#fff" d="M0 0h300v300H0z"/><path d="M35.25 201.512l26.594-3.992M61.844 197.52l8.375 10.52" stroke-width="1.2" stroke="#000" stroke-miterlimit="10" fill="none"/><path d="M70.22 208.04l8.378 10.515" stroke-width="1.2" stroke="#00f" stroke-miterlimit="10" fill="none"/><path d="M68.47 195.68l6.698 8.414" stroke-width="1.2" stroke="#000" stroke-miterlimit="10" fill="none"/><path d="M75.168 204.094l6.703 8.414" stroke-width="1.2" stroke="#00f" stroke-miterlimit="10" fill="none"/><path d="M71.684 172.492l-9.84 25.028" stroke-width="1.2" stroke="#000" stroke-miterlimit="10" fill="none"/><path d="M78.598 218.555l13.297-1.996" stroke-width="1.2" stroke="#00f" stroke-miterlimit="10" fill="none"/><path d="M91.895 216.56l13.296-1.998" stroke-width="1.2" stroke="#000" stroke-miterlimit="10" fill="none"/><path d="M74.598 212.055h8v13h-8zm0 0" fill="#fff"/><use xlink:href="#a" x="74.598" y="221.956" fill="#00f"/><path d="M105.19 214.563l16.755 21.035M111.816 212.723l13.403 16.828M115.03 189.535l-9.84 25.028M121.945 235.598l13.297-1.996" stroke-width="1.2" stroke="#000" stroke-miterlimit="10" fill="none"/><path d="M135.242 233.602l13.297-1.997M148.54 231.605l4.917-12.515" stroke-width="1.2" stroke="#00f" stroke-miterlimit="10" fill="none"/><path d="M153.457 219.09l4.922-12.512" stroke-width="1.2" stroke="#000" stroke-miterlimit="10" fill="none"/><path d="M143.633 226.785l3.937-10.008" stroke-width="1.2" stroke="#00f" stroke-miterlimit="10" fill="none"/><path d="M147.57 216.777l3.934-10.01" stroke-width="1.2" stroke="#000" stroke-miterlimit="10" fill="none"/><path d="M144.54 225.105h8v13h-8zm0 0" fill="#fff"/><use xlink:href="#a" x="144.539" y="235.007" fill="#00f"/><path d="M158.38 206.578L150 196.062" stroke-width="1.2" stroke="#000" stroke-miterlimit="10" fill="none"/><path d="M150 196.063l-8.38-10.52" stroke-width="1.2" stroke="#00f" stroke-miterlimit="10" fill="none"/><path d="M158.38 206.578l13.292-1.996" stroke-width="1.2" stroke="#000" stroke-miterlimit="10" fill="none"/><path d="M171.672 204.582l13.297-1.996M141.62 185.543l-13.292 1.996" stroke-width="1.2" stroke="#00f" stroke-miterlimit="10" fill="none"/><path d="M128.328 187.54l-13.297 1.995" stroke-width="1.2" stroke="#000" stroke-miterlimit="10" fill="none"/><path d="M139.902 192.2l-10.636 1.597" stroke-width="1.2" stroke="#00f" stroke-miterlimit="10" fill="none"/><path d="M129.266 193.797l-10.637 1.598" stroke-width="1.2" stroke="#000" stroke-miterlimit="10" fill="none"/><path d="M137.62 179.043h8v13h-8zm0 0" fill="#fff"/><use xlink:href="#a" x="137.621" y="188.944" fill="#00f"/><path d="M115.03 189.535l-8.378-10.515" stroke-width="1.2" stroke="#000" stroke-miterlimit="10" fill="none"/><path d="M106.652 179.02l-8.375-10.52M98.277 168.5l-13.297 1.996" stroke-width="1.2" stroke="#00f" stroke-miterlimit="10" fill="none"/><path d="M84.98 170.496l-13.296 1.996" stroke-width="1.2" stroke="#000" stroke-miterlimit="10" fill="none"/><path d="M98.277 168.5l4.918-12.512" stroke-width="1.2" stroke="#00f" stroke-miterlimit="10" fill="none"/><path d="M103.195 155.988l4.918-12.51" stroke-width="1.2" stroke="#000" stroke-miterlimit="10" fill="none"/><path d="M94.277 162h8v13h-8zm0 0" fill="#fff"/><use xlink:href="#a" x="94.277" y="171.901" fill="#00f"/><path d="M74.156 170.523l-8.375-10.52" stroke-width="1.2" stroke="#000" stroke-miterlimit="10" fill="none"/><path d="M65.78 160.004l-8.378-10.516" stroke-width="1.2" stroke="#f00" stroke-miterlimit="10" fill="none"/><path d="M69.207 174.465l-8.375-10.516" stroke-width="1.2" stroke="#000" stroke-miterlimit="10" fill="none"/><path d="M60.832 163.95l-8.38-10.52" stroke-width="1.2" stroke="#f00" stroke-miterlimit="10" fill="none"/><path d="M45.93 144.96h9v13h-9zm0 0" fill="#fff"/><use xlink:href="#b" x="45.93" y="154.862" fill="#f00"/><path d="M108.113 143.477l26.594-3.993M134.707 139.484l9.84-25.027M144.547 114.457l26.594-3.992M146.27 107.8l21.273-3.195M127.793 93.422l16.754 21.035M171.14 110.465l9.84-25.028M180.98 85.438L164.227 64.4M174.355 87.277L160.953 70.45M164.227 64.402l-26.594 3.993M137.633 68.395l-9.84 25.027M142.54 73.215l-7.872 20.02" stroke-width="1.2" stroke="#000" stroke-miterlimit="10" fill="none"/><path d="M184.97 202.586l8.378 10.516" stroke-width="1.2" stroke="#00f" stroke-miterlimit="10" fill="none"/><path d="M193.348 213.102l8.375 10.52M194.81 177.56l-4.92 12.514" stroke-width="1.2" stroke="#000" stroke-miterlimit="10" fill="none"/><path d="M189.89 190.074l-4.92 12.512" stroke-width="1.2" stroke="#00f" stroke-miterlimit="10" fill="none"/><path d="M180.97 196.086h8v13h-8zm0 0" fill="#fff"/><use xlink:href="#a" x="180.969" y="205.987" fill="#00f"/><path d="M201.723 223.62l26.593-3.99M228.316 219.63l4.922-12.517" stroke-width="1.2" stroke="#000" stroke-miterlimit="10" fill="none"/><path d="M233.238 207.113l4.918-12.51M238.156 194.602l-8.375-10.516" stroke-width="1.2" stroke="#00f" stroke-miterlimit="10" fill="none"/><path d="M229.78 184.086l-8.378-10.52" stroke-width="1.2" stroke="#000" stroke-miterlimit="10" fill="none"/><path d="M238.156 194.602l13.297-1.997" stroke-width="1.2" stroke="#00f" stroke-miterlimit="10" fill="none"/><path d="M251.453 192.605l13.297-1.996" stroke-width="1.2" stroke="#000" stroke-miterlimit="10" fill="none"/><path d="M234.156 188.102h8v13h-8zm0 0" fill="#fff"/><use xlink:href="#a" x="234.156" y="198.003" fill="#00f"/><path d="M221.402 173.566l-26.593 3.993" stroke-width="1.2" stroke="#000" stroke-miterlimit="10" fill="none"/></g></svg>
